src/static/icons/facebook.svg

<svg width="24" height="24" viewBox="0 0 24 24" xmlns="http://www.w3.org/2000/svg">
<path d="M9.90137 19.8966V12.9067H8V10.39H9.90137V8.24037C9.90137 6.55121 11.0245 5 13.6125 5C14.6603 5 15.4351 5.09765 15.4351 5.09765L15.3741 7.44782C15.3741 7.44782 14.5839 7.44034 13.7216 7.44034C12.7883 7.44034 12.6388 7.85841 12.6388 8.55231V10.39H15.4483L15.326 12.9067H12.6388V19.8966H9.90137Z"/>
</svg>

<svg width="24" height="24" xmlns="http://www.w3.org/2000/svg"><path d="M9.901 19.897v-6.99H8V10.39h1.901V8.24c0-1.689 1.123-3.24 3.712-3.24 1.047 0 1.822.098 1.822.098l-.06 2.35s-.791-.008-1.653-.008c-.934 0-1.083.418-1.083 1.112v1.838h2.81l-.123 2.517h-2.687v6.99H9.9z"/></svg>
